X:126
T:South Winds
R:Waltz
M:3/4
L:1/8
K:G
dc|"G"B3A G2|B3c d2|"D"A3B A2|A4 dc|"G"B3A G2|"C"E3D E2|"G"G3AG2|G2 z2:|
|:(3def|"C"g4 g2|g3f "C"e2|"G"d3e d2|"G"d4 c2|B3A G2|B3c d2|"Em"A3 BA2|"D"A2 z2 (3def|
"C"g4 g2|g3f e2|"G"d3e d2|d4 c2|B3A G2|Ac3 F2|"D"G3AG2|"G"G2 z2||

